X: 24465
T: Lucky Lucky Day
R: slip jig
M: 9/8
K: Gmajor
M:9/4
GDGA ~B2dB ed2A B2 dB AB|GDGA ~B2dB edge d2 AB AB|
GDGA ~B2dB ed2A B2 dB AB|~G3A ~B2dB edge d2 AB AB|
|:GDGA ~B2GA Bded BAB def|g2ab g2dB dede fgf edB|
A2Bd A2d2 edBA ABd deg|abed ~e2AB dede g2e dBA:|
|:e2Bd e2AB dedB ABd EGB|AGAB d2AB ded aded ged|
e2Bd e2gf dedB dgf dBG|1 A2AB dABde dAB ded ABd:|
[2 A2AB dABd edAB ded BAB||

